X: 4059
T: MACGREGOR'S GATHERING
R: Reel.
%R: reel
B: James Kerr "Merry Melodies" v.4 p.09 #59
Z: 2016 John Chambers <jc:trillian.mit.edu>
M: C|
L: 1/8
K: D
uA |\
d2(ef) edcB | A2A2 A2(Bc) |\
def2 def2 | g2e2 e2A2 |\
dcdf edcB | A2(ab) agfe |\
defd efge | f2d2 d2 |]
(de) |\
f2(ef) gfed | B2B2 B2(Bc) |\
d2A2 defd | g2e2 e2A2 |\
d2(ef) edcB | A2(ab) agfe |\
defd efge | f2d2 d2 |]

%%sep 1 1 500
%%sep 1 1 500

